Sources/FrostedUI/Resources/Icons.xcassets/instagram24.imageset/instagram-24.svg

<svg width="24" height="24" viewBox="0 0 24 24" fill="none" xmlns="http://www.w3.org/2000/svg" data-fui-icon="true">
  <path
    d="M12 3C14.6761 3 15.0184 3.01095 16.084 3.05957C16.8044 3.06923 17.5177 3.20189 18.1934 3.45215C18.7288 3.64976 19.2144 3.96308 19.6143 4.37012C20.029 4.77284 20.3487 5.2633 20.5488 5.80566H20.5479C20.7963 6.47643 20.9289 7.18433 20.9404 7.89941L20.9707 8.61719C20.9943 9.29161 21 9.9829 21 12C21 14.6899 20.9897 15.0219 20.9404 16.1006C20.9289 16.8159 20.7965 17.5244 20.5479 18.1953L20.5449 18.2041C20.3654 18.6695 20.1018 19.098 19.7686 19.4678L19.6221 19.6221C19.2191 20.0252 18.7358 20.3398 18.2041 20.5449L18.1953 20.5479C17.5192 20.7985 16.8049 20.9307 16.084 20.9404C15.0184 20.9891 14.676 21 12 21C9.32313 21 8.98129 20.9891 7.91504 20.9404C7.19409 20.9307 6.47986 20.7984 5.80371 20.5479V20.5469C5.26894 20.3491 4.78499 20.0357 4.38574 19.6289V19.6299C3.97106 19.2271 3.65132 18.7367 3.45117 18.1943L3.45215 18.1934C3.20381 17.5229 3.07104 16.8153 3.05957 16.1006C3.01029 15.0219 3 14.6899 3 12C3 9.3101 3.01029 8.97799 3.05957 7.89941C3.07104 7.18431 3.20363 6.47642 3.45215 5.80566C3.65229 5.26343 3.97109 4.77278 4.38574 4.37012C4.78556 3.96307 5.27021 3.64877 5.80566 3.45117V3.45215C6.4813 3.20182 7.19462 3.06935 7.91504 3.05957C8.98129 3.01091 9.32311 3 12 3ZM12 4.5C9.31623 4.5 9.01152 4.50993 7.96777 4.55762C7.95939 4.558 7.95078 4.55849 7.94238 4.55859C7.39045 4.56528 6.84374 4.66657 6.32617 4.8584L6.3252 4.85938C5.99323 4.98189 5.69281 5.17682 5.44629 5.43066C5.44118 5.43592 5.43592 5.44118 5.43066 5.44629C5.17682 5.69281 4.98189 5.99323 4.85938 6.3252L4.8584 6.32617C4.66657 6.84374 4.56528 7.39045 4.55859 7.94238C4.55849 7.95078 4.558 7.95939 4.55762 7.96777C4.50993 9.01152 4.5 9.31623 4.5 12C4.5 14.6837 4.50993 14.9884 4.55762 16.0322C4.558 16.0406 4.55849 16.0492 4.55859 16.0576C4.56445 16.5406 4.64295 17.0196 4.79102 17.4785L4.8584 17.6738L4.85938 17.6748C4.98188 18.0067 5.1768 18.3071 5.43066 18.5537C5.43593 18.5588 5.44117 18.5641 5.44629 18.5693C5.69266 18.8232 5.99348 19.019 6.3252 19.1416C6.84305 19.3335 7.39011 19.4348 7.94238 19.4414C7.95081 19.4415 7.95935 19.442 7.96777 19.4424C9.01151 19.4901 9.31623 19.5 12 19.5C14.6838 19.5 14.9884 19.4901 16.0322 19.4424L16.0576 19.4414C16.6058 19.4347 17.1487 19.3338 17.6631 19.1445C17.9996 19.0147 18.3067 18.8164 18.5615 18.5615L18.7422 18.3613C18.9116 18.1523 19.0472 17.9172 19.1445 17.665C19.3342 17.1501 19.4347 16.6064 19.4414 16.0576L19.4424 16.0322C19.4901 14.9884 19.5 14.6838 19.5 12C19.5 9.31623 19.4901 9.01151 19.4424 7.96777C19.442 7.9594 19.4415 7.95077 19.4414 7.94238C19.4347 7.39044 19.3334 6.84373 19.1416 6.32617L19.1406 6.3252C19.0181 5.99326 18.8232 5.69282 18.5693 5.44629C18.5641 5.44119 18.5588 5.43592 18.5537 5.43066C18.3071 5.1768 18.0067 4.98188 17.6748 4.85938L17.6738 4.8584C17.1563 4.66657 16.6095 4.56528 16.0576 4.55859C16.0492 4.55849 16.0406 4.558 16.0322 4.55762C14.9884 4.50993 14.6837 4.5 12 4.5ZM11.1367 7.66016C11.9949 7.48947 12.885 7.57724 13.6934 7.91211C14.5018 8.24704 15.1935 8.81445 15.6797 9.54199C16.1656 10.2695 16.4248 11.125 16.4248 12C16.4248 13.1735 15.9587 14.2991 15.1289 15.1289C14.2991 15.9587 13.1735 16.4247 12 16.4248C11.125 16.4248 10.2695 16.1656 9.54199 15.6797C8.81444 15.1935 8.24704 14.5018 7.91211 13.6934C7.57723 12.8849 7.48946 11.995 7.66016 11.1367C7.83092 10.2784 8.25228 9.48986 8.87109 8.87109C9.48986 8.2523 10.2784 7.83092 11.1367 7.66016ZM13.1191 9.29785C12.5849 9.07659 11.9969 9.01905 11.4297 9.13184C10.8622 9.2447 10.3406 9.52262 9.93164 9.93164C9.5226 10.3406 9.2447 10.8622 9.13184 11.4297C9.01903 11.9969 9.07658 12.5849 9.29785 13.1191L9.3877 13.3164C9.61434 13.7662 9.95424 14.1514 10.375 14.4326C10.8559 14.7539 11.4217 14.9248 12 14.9248C12.7756 14.9247 13.5199 14.6168 14.0684 14.0684C14.6168 13.5199 14.9248 12.7756 14.9248 12C14.9248 11.4217 14.7539 10.8559 14.4326 10.375C14.1515 9.95425 13.7661 9.61434 13.3164 9.3877L13.1191 9.29785ZM17.0713 5.78906C17.3944 5.78913 17.7041 5.9172 17.9326 6.14551C18.1612 6.3739 18.29 6.68383 18.29 7.00684C18.29 7.24763 18.2179 7.48338 18.084 7.68359C17.9502 7.88367 17.7596 8.03973 17.5371 8.13184C17.3145 8.22392 17.0693 8.24815 16.833 8.20117C16.5967 8.15416 16.3793 8.03839 16.209 7.86816C16.0385 7.69784 15.923 7.48039 15.876 7.24414C15.829 7.00801 15.8532 6.76347 15.9453 6.54102C16.0374 6.31859 16.1934 6.12796 16.3936 5.99414C16.594 5.86032 16.8302 5.78906 17.0713 5.78906Z"
    fill="currentColor"
  />
</svg>

<svg xmlns="http://www.w3.org/2000/svg" width="24" height="24" fill="none" data-fui-icon="true" viewBox="0 0 24 24"><path fill="currentColor" d="M12 3c2.676 0 3.018.01 4.084.06.72.01 1.434.142 2.11.392a3.9 3.9 0 0 1 1.42.918c.415.403.735.893.935 1.436h-.001c.248.67.38 1.378.392 2.093l.03.718c.024.675.03 1.366.03 3.383 0 2.69-.01 3.022-.06 4.1a6.3 6.3 0 0 1-.392 2.095l-.003.01c-.18.465-.443.893-.776 1.263l-.147.154a4.1 4.1 0 0 1-1.418.923l-.009.003a6.3 6.3 0 0 1-2.111.392c-1.066.05-1.408.06-4.084.06-2.677 0-3.019-.01-4.085-.06a6.3 6.3 0 0 1-2.111-.392v-.001a3.9 3.9 0 0 1-1.418-.918 3.9 3.9 0 0 1-.935-1.435h.001A6.3 6.3 0 0 1 3.06 16.1C3.01 15.02 3 14.69 3 12s.01-3.022.06-4.1a6.3 6.3 0 0 1 .392-2.094c.2-.543.52-1.033.934-1.436.4-.407.884-.721 1.42-.919v.001a6.3 6.3 0 0 1 2.109-.392C8.981 3.01 9.323 3 12 3m0 1.5c-2.684 0-2.988.01-4.032.058h-.026a4.8 4.8 0 0 0-1.616.3v.001a2.4 2.4 0 0 0-.895.587 2.4 2.4 0 0 0-.572.88 4.8 4.8 0 0 0-.3 1.616l-.001.026C4.51 9.012 4.5 9.316 4.5 12s.01 2.988.058 4.032v.026c.006.483.085.962.233 1.42l.067.196h.001a2.4 2.4 0 0 0 .587.895c.247.254.547.45.88.573a4.8 4.8 0 0 0 1.616.3h.026c1.044.048 1.348.058 4.032.058s2.988-.01 4.032-.058h.026a4.8 4.8 0 0 0 1.605-.297c.337-.13.644-.329.898-.584l.181-.2a2.6 2.6 0 0 0 .402-.696 4.8 4.8 0 0 0 .297-1.607l.001-.026c.048-1.044.058-1.348.058-4.032s-.01-2.988-.058-4.032v-.026a4.8 4.8 0 0 0-.3-1.616h-.001a2.4 2.4 0 0 0-.587-.895 2.4 2.4 0 0 0-.88-.572 4.8 4.8 0 0 0-1.616-.3l-.026-.001C14.988 4.51 14.684 4.5 12 4.5m-.863 3.16a4.426 4.426 0 1 1 1.726 8.682 4.426 4.426 0 0 1-1.726-8.682m1.982 1.638a2.924 2.924 0 0 0-3.821 3.821l.09.197A2.93 2.93 0 0 0 12 14.925a2.926 2.926 0 0 0 1.316-5.537zm3.952-3.509a1.219 1.219 0 1 1 0 2.437 1.219 1.219 0 0 1 0-2.437"/></svg>
